public/images/hashed/3e36f6480a778fbc1ba73552d39f8a66.svg

<svg xmlns="http://www.w3.org/2000/svg" width="80" height="80"><defs><linearGradient id="a" x1="0%" x2="100%" y1="100%" y2="0%"><stop offset="0%" stop-color="#BD0816"/><stop offset="100%" stop-color="#FF5252"/></linearGradient></defs><g fill="none" fill-rule="evenodd"><path fill="url(#a)" d="M0 0h80v80H0z"/><path fill="#FFF" d="M33 60a1.001 1.001 0 0 0-2 0 1.001 1.001 0 0 0 2 0Zm2 0c0 1.654-1.346 3-3 3s-3-1.346-3-3 1.346-3 3-3 3 1.346 3 3Zm19.431.845L52.586 59H38.71a1 1 0 0 1-.958-.715C37.001 55.762 34.636 54 32 54c-3.309 0-6 2.691-6 6s2.691 6 6 6a6.03 6.03 0 0 0 5.423-3.429 1 1 0 0 1 .903-.571H41c.266 0 .52.105.707.293L43 63.586l1.293-1.293A.996.996 0 0 1 45 62h2c.266 0 .52.105.707.293L49 63.586l1.293-1.293A.996.996 0 0 1 51 62h1.697l1.734-1.155Zm2.276-.552a1.001 1.001 0 0 1-.152 1.539l-3 2A1.006 1.006 0 0 1 53 64h-1.586l-1.707 1.707a.999.999 0 0 1-1.414 0L46.586 64h-1.172l-1.707 1.707a.999.999 0 0 1-1.414 0L40.586 64h-1.657A8.045 8.045 0 0 1 32 68c-4.411 0-8-3.589-8-8s3.589-8 8-8c3.26 0 6.208 2.022 7.418 5H53c.266 0 .52.105.707.293l3 3ZM47.414 25 53 30.586 58.586 25 53 19.414 47.414 25Zm4.879 7.707-7-7a.999.999 0 0 1 0-1.414l7-7a.999.999 0 0 1 1.414 0l7 7a.999.999 0 0 1 0 1.414l-7 7a.997.997 0 0 1-1.414 0ZM34.09 29l-6.087-8.304L21.964 29H34.09Zm1.973 2H20a1 1 0 0 1-.809-1.588l8-11a1 1 0 0 1 .807-.412c.346-.016.62.151.809.409l8.062 11A1 1 0 0 1 36.063 31ZM22 42.5c0 3.033 2.468 5.5 5.5 5.5s5.5-2.467 5.5-5.5-2.468-5.5-5.5-5.5a5.506 5.506 0 0 0-5.5 5.5Zm-2 0c0-4.136 3.364-7.5 7.5-7.5s7.5 3.364 7.5 7.5-3.364 7.5-7.5 7.5-7.5-3.364-7.5-7.5ZM48 47h9v-9h-9v9Zm11 1a1 1 0 0 1-1 1H47a1 1 0 0 1-1-1V37a1 1 0 0 1 1-1h11a1 1 0 0 1 1 1v11Zm9-35v50a1 1 0 0 1-1 1h-8v-2h7V14H14v48h7v2h-8a1 1 0 0 1-1-1V13a1 1 0 0 1 1-1h54a1 1 0 0 1 1 1Z"/></g></svg>

<?xml version="1.0" encoding="UTF-8"?>
<svg width="80px" height="80px" viewBox="0 0 80 80" version="1.1" xmlns="http://www.w3.org/2000/svg" xmlns:xlink="http://www.w3.org/1999/xlink">
    <!-- Generator: Sketch 64 (93537) - https://sketch.com -->
    <title>Icon-Architecture/64/Arch_AWS-Resources-Access-Manager_64</title>
    <desc>Created with Sketch.</desc>
    <defs>
        <linearGradient x1="0%" y1="100%" x2="100%" y2="0%" id="linearGradient-1">
            <stop stop-color="#BD0816" offset="0%"></stop>
            <stop stop-color="#FF5252" offset="100%"></stop>
        </linearGradient>
    </defs>
    <g id="Icon-Architecture/64/Arch_AWS-Resources-Access-Manager_64" stroke="none" stroke-width="1" fill="none" fill-rule="evenodd">
        <g id="Icon-Architecture-BG/64/Security-Identity-Compliance" fill="url(#linearGradient-1)">
            <rect id="Rectangle" x="0" y="0" width="80" height="80"></rect>
        </g>
        <path d="M33,60 C33,59.449 32.552,59 32,59 C31.448,59 31,59.449 31,60 C31,60.551 31.448,61 32,61 C32.552,61 33,60.551 33,60 L33,60 Z M35,60 C35,61.654 33.654,63 32,63 C30.346,63 29,61.654 29,60 C29,58.346 30.346,57 32,57 C33.654,57 35,58.346 35,60 L35,60 Z M54.431,60.845 L52.586,59 L38.71,59 C38.268,59 37.878,58.709 37.752,58.285 C37.001,55.762 34.636,54 32,54 C28.691,54 26,56.691 26,60 C26,63.309 28.691,66 32,66 C34.306,66 36.434,64.654 37.423,62.571 C37.589,62.222 37.94,62 38.326,62 L41,62 C41.266,62 41.52,62.105 41.707,62.293 L43,63.586 L44.293,62.293 C44.48,62.105 44.734,62 45,62 L47,62 C47.266,62 47.52,62.105 47.707,62.293 L49,63.586 L50.293,62.293 C50.48,62.105 50.734,62 51,62 L52.697,62 L54.431,60.845 Z M56.707,60.293 C56.919,60.505 57.024,60.8 56.995,61.099 C56.966,61.396 56.804,61.666 56.555,61.832 L53.555,63.832 C53.391,63.941 53.197,64 53,64 L51.414,64 L49.707,65.707 C49.316,66.098 48.684,66.098 48.293,65.707 L46.586,64 L45.414,64 L43.707,65.707 C43.316,66.098 42.684,66.098 42.293,65.707 L40.586,64 L38.929,64 C37.511,66.449 34.857,68 32,68 C27.589,68 24,64.411 24,60 C24,55.589 27.589,52 32,52 C35.26,52 38.208,54.022 39.418,57 L53,57 C53.266,57 53.52,57.105 53.707,57.293 L56.707,60.293 Z M47.414,25 L53,30.586 L58.586,25 L53,19.414 L47.414,25 Z M52.293,32.707 L45.293,25.707 C44.902,25.316 44.902,24.684 45.293,24.293 L52.293,17.293 C52.684,16.902 53.316,16.902 53.707,17.293 L60.707,24.293 C61.098,24.684 61.098,25.316 60.707,25.707 L53.707,32.707 C53.512,32.902 53.256,33 53,33 C52.744,33 52.488,32.902 52.293,32.707 L52.293,32.707 Z M34.09,29 L28.003,20.696 L21.964,29 L34.09,29 Z M36.063,31 L20,31 C19.624,31 19.279,30.789 19.109,30.454 C18.938,30.119 18.97,29.716 19.191,29.412 L27.191,18.412 C27.379,18.154 27.679,18 27.998,18 C28.344,17.984 28.618,18.151 28.807,18.409 L36.869,29.409 C37.092,29.713 37.125,30.116 36.954,30.452 C36.784,30.788 36.439,31 36.063,31 L36.063,31 Z M22,42.5 C22,45.533 24.468,48 27.5,48 C30.532,48 33,45.533 33,42.5 C33,39.467 30.532,37 27.5,37 C24.468,37 22,39.467 22,42.5 L22,42.5 Z M20,42.5 C20,38.364 23.364,35 27.5,35 C31.636,35 35,38.364 35,42.5 C35,46.636 31.636,50 27.5,50 C23.364,50 20,46.636 20,42.5 L20,42.5 Z M48,47 L57,47 L57,38 L48,38 L48,47 Z M59,48 C59,48.552 58.553,49 58,49 L47,49 C46.447,49 46,48.552 46,48 L46,37 C46,36.448 46.447,36 47,36 L58,36 C58.553,36 59,36.448 59,37 L59,48 Z M68,13 L68,63 C68,63.552 67.553,64 67,64 L59,64 L59,62 L66,62 L66,14 L14,14 L14,62 L21,62 L21,64 L13,64 C12.447,64 12,63.552 12,63 L12,13 C12,12.448 12.447,12 13,12 L67,12 C67.553,12 68,12.448 68,13 L68,13 Z" id="AWS-Resources-Access-Manager_Icon_64_Squid" fill="#FFFFFF"></path>
    </g>
</svg>
